X:1
T:Scully Casey's
R:jig
M:6/8
L:1/8
K:Ador
|:~c2c BAG|EGA GAB|~c2c dcd|ega ged|
|~c2c BAG|EGA GAB|~c2c dBG|BAA ~A2B:|
|:cBc dcd|ega ged|eaa aga|bag ~a2g|
|eaa c'aa|ac'a ged|~c2c dBG|BAA ~A2B:|